data/styles/clear/style-night/symbols/ticket-shop-m.svg

<svg height="24" viewBox="0 0 24 24" width="24"><g fill="none" fill-rule="evenodd"><circle cx="12" cy="12" fill="#fff" opacity=".4" r="12"/><circle cx="12" cy="12" fill="#4e3552" r="11"/><path d="m6 10.6666667v-1.66963656c0-.55064454.45576096-.99703014 1.00247329-.99703014h9.99505341c.5536507 0 1.0024733.45303631 1.0024733.99703014v1.66963656c-.764702 0-1.3846154.5969536-1.3846154 1.3333333s.6199134 1.3333333 1.3846154 1.3333333v1.6696366c0 .5506445-.455761.9970301-1.0024733.9970301h-9.99505341c-.55365071 0-1.00247329-.4530363-1.00247329-.9970301v-1.6696366c.76470196 0 1.38461538-.5969536 1.38461538-1.3333333s-.61991342-1.3333333-1.38461538-1.3333333zm7.1636017 1.8071633 1.0872966-.8553904c.111256-.1073139.049798-.294333-.1039685-.31642l-1.3804975-.0367316c-.0534417-.0076824-.099596-.0408129-.1234018-.088588l-.4746599-1.29544951c-.0344943-.06890178-.1012964-.10347271-.1683415-.10347271s-.1338472.03457093-.1683415.10347271l-.4746599 1.29544951c-.0238058.0477751-.0699601.0809056-.1234018.088588l-1.38049749.0367316c-.15400939.022087-.21522447.2091061-.10396847.31642l1.08729656.8553904c.0386239.0372118.0563568.0907487.0471259.1433253l-.3787076 1.2997709c-.0208908.1197979.0755472.2172687.1848599.2172687.0289071 0 .0587859-.0067222.0874501-.0216069l1.1465684-.7485566c.0238058-.0124839.0500409-.0187259.0762759-.0187259.0262351 0 .0524701.006242.076276.0187259l1.1465683.7485566c.0289071.0148847.058543.0216069.0874502.0216069.1093126 0 .2057507-.0974708.1848598-.2172687l-.3787076-1.2997709c-.0092308-.0525766.0085021-.1061135.0471259-.1433253z" fill="#fff" opacity=".6"/></g></svg>

<svg width="24" height="24" viewBox="0 0 24 24">
  <g fill="none" fill-rule="evenodd">
    <circle cx="12" cy="12" r="12" fill="#FFF" opacity=".4"/>
    <circle cx="12" cy="12" r="11" fill="#4E3551"/>
    <path fill="#FFF" d="M6,10.6666667 L6,8.99703014 C6,8.4463856 6.45576096,8 7.00247329,8 L16.9975267,8 C17.5511774,8 18,8.45303631 18,8.99703014 L18,10.6666667 C17.235298,10.6666667 16.6153846,11.2636203 16.6153846,12 C16.6153846,12.7363797 17.235298,13.3333333 18,13.3333333 L18,15.0029699 C18,15.5536144 17.544239,16 16.9975267,16 L7.00247329,16 C6.44882258,16 6,15.5469637 6,15.0029699 L6,13.3333333 C6.76470196,13.3333333 7.38461538,12.7363797 7.38461538,12 C7.38461538,11.2636203 6.76470196,10.6666667 6,10.6666667 Z M13.1636017,12.47383 L14.2508983,11.6184396 C14.3621543,11.5111257 14.3006963,11.3241066 14.1469298,11.3020196 L12.7664323,11.265288 C12.7129906,11.2576056 12.6668363,11.2244751 12.6430305,11.1767 L12.1683706,9.88125049 C12.1338763,9.81234871 12.0670742,9.77777778 12.0000291,9.77777778 C11.932984,9.77777778 11.8661819,9.81234871 11.8316876,9.88125049 L11.3570277,11.1767 C11.3332219,11.2244751 11.2870676,11.2576056 11.2336259,11.265288 L9.85312841,11.3020196 C9.69911902,11.3241066 9.63790394,11.5111257 9.74915994,11.6184396 L10.8364565,12.47383 C10.8750804,12.5110418 10.8928133,12.5645787 10.8835824,12.6171553 L10.5048748,13.9169262 C10.483984,14.0367241 10.580422,14.1341949 10.6897347,14.1341949 C10.7186418,14.1341949 10.7485206,14.1274727 10.7771848,14.112588 L11.9237532,13.3640314 C11.947559,13.3515475 11.9737941,13.3453055 12.0000291,13.3453055 C12.0262642,13.3453055 12.0524992,13.3515475 12.0763051,13.3640314 L13.2228734,14.112588 C13.2517805,14.1274727 13.2814164,14.1341949 13.3103236,14.1341949 C13.4196362,14.1341949 13.5160743,14.0367241 13.4951834,13.9169262 L13.1164758,12.6171553 C13.107245,12.5645787 13.1249779,12.5110418 13.1636017,12.47383 Z" opacity=".6"/>
  </g>
</svg>
